T: Lochanside
M: 3/4
L: 1/8
K: Dmaj
~| eg fg/f/ e2 | A2 d>f a2 | af g/>f/e/>d/ c2 | B2 e>f g2 | gB cA d2 :|~ | e<a f2 eA | d>f a2 fa | g/>f/e/>d/ c2 B2 | e>f g2 gB | cA d2 d2 :|
